svg/u1F315.svg

<svg viewBox="0 0 2600 2760.837" xmlns="http://www.w3.org/2000/svg"><path d="M2153 1922.5q-132 227.5-359.5 359.5t-491.5 132-491.5-132-359.5-359.5-132-491.5 132-491.5 359.5-359.5 491.5-132 491.5 132 359.5 359.5 132 491.5-132 491.5z m-1599.5-60q116.5 200.5 317 317t431.5 116.5 431.5-116.5 317-317 116.5-431.5-116.5-431.5-317-317-431.5-116.5-431.5 116.5-317 317-116.5 431.5 116.5 431.5z"/></svg>

<svg viewBox="0 0 2600 2760.837" xmlns="http://www.w3.org/2000/svg"><path d="M2153 1922.5Q2021 2150 1793.5 2282T1302 2414t-491.5-132T451 1922.5 319 1431t132-491.5T810.5 580 1302 448t491.5 132T2153 939.5t132 491.5-132 491.5zm-1599.5-60q116.5 200.5 317 317T1302 2296t431.5-116.5 317-317T2167 1431t-116.5-431.5-317-317T1302 566 870.5 682.5t-317 317T437 1431t116.5 431.5z"/></svg>
